src/img/first-screen/gradient-line.svg

<svg height="366" width="1460" preserveAspectRatio="none" viewBox="0 0 1460 366" fill="none" xmlns="http://www.w3.org/2000/svg">
<path d="M1525.67 0.067302L1527.37 60.4157C1155.77 88.5797 845.846 231.14 434.808 244.976C304.645 248.019 229.05 234.077 -25.8168 181.834L-25.9153 178.346L-20.3745 179.247C247.19 222.882 324.09 234.248 455.802 225.978C587.055 216.452 706.809 194.134 821.329 166.782C947.333 136.673 1066.7 100.51 1187.56 68.6423C1297.05 39.6342 1407.81 14.2922 1525.67 0.067302Z" fill="url(#paint0_linear_66_4062)"/>
<path d="M1453.6 53V365.8H-14V180.1L-8.8 181.1C242.3 229.5 314.5 242.3 438.9 238C562.9 232.5 676.5 214.6 785.1 191.8C899.1 167.9 1007.6 138.6 1116.9 112.6C1122.3 111.3 1127.6 110 1133 108.8C1237 84.3 1342.1 63.3 1453.6 53Z" fill="white"/>
<defs>
<linearGradient id="paint0_linear_66_4062" x1="-91.5366" y1="151.378" x2="258.641" y2="-548.129" gradientUnits="userSpaceOnUse">
<stop stop-color="#009EE2"/>
<stop offset="1" stop-color="#273992"/>
</linearGradient>
</defs>
</svg>

<svg xmlns="http://www.w3.org/2000/svg" fill="none" preserveAspectRatio="none" viewBox="0 0 1460 366"><path d="m1525.67.067 1.7 60.349C1155.77 88.58 845.846 231.14 434.808 244.976c-130.163 3.043-205.758-10.899-460.625-63.142l-.098-3.488 5.54.901c267.565 43.635 344.465 55.001 476.177 46.731 131.253-9.526 251.007-31.844 365.527-59.196 126.004-30.109 245.371-66.272 366.231-98.14 109.49-29.008 220.25-54.35 338.11-68.575Z" fill="url(#a)"/><path d="M1453.6 53v312.8H-14V180.1l5.2 1c251.1 48.4 323.3 61.2 447.7 56.9 124-5.5 237.6-23.4 346.2-46.2 114-23.9 222.5-53.2 331.8-79.2 5.4-1.3 10.7-2.6 16.1-3.8 104-24.5 209.1-45.5 320.6-55.8Z" fill="#fff"/><defs><linearGradient id="a" x1="-91.537" x2="258.641" y1="151.378" y2="-548.129" gradientUnits="userSpaceOnUse"><stop stop-color="#009EE2"/><stop offset="1" stop-color="#273992"/></linearGradient></defs></svg>
